X: 1736
T: Music Makes Me Smile (Waltz time)
C:Con Klippel, Nariel, Vic
B: australian traditional tunes wiki
M:3/4
L:1/8
R: Waltz
Q: 1/4=100
K:C
V:1 
E2F2|:"C"G4 (3ged|c2G3B|"F"A4 (3fdB|A4GA|"G7"B4 (3gfe|f2d2Bd|"C"e6-|e2E2F2|
G4 (3ged|c2G3B|"F"A4 (3fdB|A4GA|"G7"B4B2|f2d2Bd|"C"c6-|c2E2F2:|
|:"C"G2ez2c|e2c2zc|"F"A2fz2d|f2d2zc|"C"G2ez2c|e2c2zc|"G7"d3B dB|"G"d4EF|
"C"G2e2zc|e2c2zc|"F"A2fz2d|f4zB|"G7"G2g2g2|g2f>d A>B|1"C"c6-|c2E2F2:|2"C"c2G2E2|HC4||
% abcbook-tune_id 6342d53a25984c88b058b01d


% abcbook-boost 0
% abcbook-tablature 
% abcbook-transpose 
% abcbook-lastupdated 1665324380925
% abcbook-soundfonts 
% abcbook-repeats 1
% NFF Book 2016

